public/sponsors/evo.svg

<svg xmlns="http://www.w3.org/2000/svg" fill="none" viewBox="0 0 112 104" height="104" width="112">
<path fill="#50AD47" d="M0 84.1872C0.0392982 95.4841 8.65871 103.999 20.0421 103.999C28.3864 104.077 35.316 99.618 38.604 92.1431L39.6126 89.8291H33.9537L33.5083 90.7781C31.098 95.9131 26.094 98.968 20.1207 98.968C14.3439 99.007 6.32702 94.9901 5.37076 85.9942C8.58012 85.9942 39.9663 85.9942 39.9663 85.9942C39.9663 85.9942 40.2021 84.6422 40.1235 83.2902C39.6388 72.0323 31.0587 64.3104 20.1207 64.3104C8.65871 64.3364 0.0392982 72.8513 0 84.1872ZM20.1207 69.3413H20.1993C26.9324 69.0683 33.3904 74.4763 34.6349 81.0022C31.5041 81.0022 8.69801 81.0022 5.52795 81.0022C6.8117 74.2423 12.785 69.3413 20.1207 69.3413Z"></path>
<path fill="#50AD47" d="M69.3483 64.6094C69.3483 64.6094 58.8426 89.1531 56.393 94.8861C53.9565 89.1531 43.4901 64.6094 43.4901 64.6094H38.2372L54.7949 103.167H58.0042L74.6012 64.6094H69.3483Z"></path>
<path fill="#50AD47" d="M71.8372 83.8622C71.8372 95.0031 80.6531 103.752 91.9186 103.752C103.184 103.752 112 95.0031 112 83.8622C112 72.6823 103.184 63.9724 91.9186 63.9724C80.6531 63.9724 71.8372 72.7213 71.8372 83.8622ZM76.6054 83.8622C76.6054 75.1523 83.1813 68.5483 91.9186 68.5483C100.656 68.5483 107.232 75.1133 107.232 83.8622C107.232 92.5721 100.656 99.137 91.9186 99.137C83.1813 99.189 76.6054 92.5851 76.6054 83.8622Z"></path>
<path fill="#50AD47" d="M64.4229 15.3919L70.1867 9.9839H61.2922L56.3144 0L51.3497 9.9839H42.4945L48.2583 15.3919H64.4229Z"></path>
<path fill="#50AD47" d="M108.555 45.7596H3.48444V50.1405H108.555V45.7596Z"></path>
<path fill="#50AD47" d="M50.9436 20.5268C50.9043 29.0027 44.6559 35.4117 37.1499 35.6847H3.72024V40.3386L37.1499 40.2996C47.2103 39.9876 55.6725 31.4337 55.7511 20.5268H50.9436Z"></path>
<path fill="#50AD47" d="M77.0508 35.6847C68.6671 35.3727 62.458 28.9637 62.3794 20.5268H57.6112C57.6505 31.4337 66.1521 39.9876 77.0508 40.2996L108.162 40.3386V35.6847H77.0508Z"></path>
</svg>

<svg xmlns="http://www.w3.org/2000/svg" width="112" height="104" fill="none" viewBox="0 0 112 104"><path fill="#50ad47" d="M0 84.187C.04 95.484 8.659 104 20.042 104c8.344.078 15.274-4.381 18.562-11.856l1.009-2.314h-5.66l-.445.95c-2.41 5.134-7.414 8.189-13.387 8.189-5.777.039-13.794-3.978-14.75-12.974h34.595s.236-1.352.157-2.704c-.484-11.258-9.064-18.98-20.002-18.98C8.659 64.336.039 72.851 0 84.187m20.12-14.846h.08c6.732-.273 13.19 5.135 14.435 11.661H5.528c1.284-6.76 7.257-11.66 14.593-11.66m49.227-4.732S58.843 89.152 56.393 94.885C53.956 89.153 43.49 64.61 43.49 64.61h-5.253l16.558 38.558h3.21L74.6 64.609zm2.489 19.252c0 11.141 8.816 19.89 20.082 19.89S112 95.003 112 83.862c0-11.18-8.816-19.89-20.081-19.89-11.266 0-20.082 8.75-20.082 19.89m4.768 0c0-8.71 6.576-15.314 15.314-15.314s15.313 6.565 15.313 15.314c0 8.71-6.576 15.275-15.313 15.275-8.738.052-15.314-6.552-15.314-15.275m-12.182-68.47 5.764-5.408h-8.895L56.314 0 51.35 9.984h-8.855l5.763 5.408zm44.132 30.368H3.485v4.38h105.07zM50.944 20.527c-.04 8.476-6.288 14.885-13.794 15.158H3.72v4.654l33.43-.04c10.06-.311 18.523-8.865 18.601-19.772zM77.05 35.685c-8.383-.312-14.592-6.721-14.67-15.158h-4.77c.04 10.907 8.541 19.46 19.44 19.773l31.111.039v-4.654z"/></svg>
